X:1
T:Turnpike -- Reel
R:reel
B:Ryan's Mammoth Collection
N: 49
Z: Contributed by Ray Davies,  ray:davies99.freeserve.co.uk
M:C|
L:1/8
K:A
u((3EFG)|\
ABcA BGAF | Ecce fefg | agae faec | dBcA BFEF |
ABcA BGAF | Ecce fefg | agae faed | cABG A2 :|
|:vE2(GB) BEGB | A2(cA) eAce | B2(df) fBdf | e2(ge) befg |
agae faec | defg a2(ga) | bgeg agaf | ecBc A2 :|
